src/icons/list.icon.svg

<svg xmlns="http://www.w3.org/2000/svg" viewBox="0 0 24 24"><path d="M2 16h4v4H2v-4zm0-6h4v4H2v-4zm0-6h4v4H2V4zm5 12h15v4H7v-4zm0-6h15v4H7v-4zm0-6h15v4H7V4z" fill="currentColor" fill-rule="evenodd"/></svg>

<svg width="24px" height="24px" viewBox="0 0 24 24" version="1.1" xmlns="http://www.w3.org/2000/svg" xmlns:xlink="http://www.w3.org/1999/xlink">
    <!-- Generator: Sketch 49.2 (51160) - http://www.bohemiancoding.com/sketch -->
    <title>IconList</title>
    <desc>Created with Sketch.</desc>
    <defs></defs>
    <g id="Page-1" stroke="none" stroke-width="1" fill="none" fill-rule="evenodd">
        <g id="IconList">
            <path d="M2,16 L6,16 L6,20 L2,20 L2,16 Z M2,10 L6,10 L6,14 L2,14 L2,10 Z M2,4 L6,4 L6,8 L2,8 L2,4 Z M7,16 L22,16 L22,20 L7,20 L7,16 Z M7,10 L22,10 L22,14 L7,14 L7,10 Z M7,4 L22,4 L22,8 L7,8 L7,4 Z" id="Combined-Shape" fill="currentColor"></path>
        </g>
    </g>
</svg>
